packages/app/public/assets/images/stackly-logo-name.svg

<svg width="95" height="27" viewBox="0 0 95 27" fill="none" xmlns="http://www.w3.org/2000/svg">
<path d="M6.8911 20.4651C10.4082 20.4651 12.9609 18.6498 12.9609 15.8134C12.9609 13.4309 11.174 11.956 8.02565 11.4738L5.81329 11.0767C4.76383 10.8782 4.11147 10.3676 4.11147 9.51671C4.11147 8.3538 5.18929 7.64471 6.52238 7.64471C8.16747 7.64471 9.35874 8.72253 9.44383 10.2542L12.6206 10.1123C12.4504 7.13416 9.98274 5.17707 6.5791 5.17707C3.17547 5.17707 0.736195 6.99235 0.736195 9.88544C0.736195 12.0411 2.12601 13.6578 5.07583 14.1116L7.31656 14.5087C8.79147 14.764 9.52892 15.2462 9.52892 16.1822C9.52892 17.3451 8.33765 17.9974 6.8911 17.9974C5.13256 17.9974 3.82783 16.9763 3.68601 15.388L0.424195 15.5014C0.651104 18.5363 3.20383 20.4651 6.8911 20.4651ZM23.6797 19.8411L23.6514 16.8913C22.1481 17.3451 20.6448 17.1749 20.6448 14.9058V8.60907H24.0768V5.68762H20.6448V2.08544H17.1277V5.68762H14.5466V8.60907H17.1277V15.1894C17.1277 19.8411 20.5597 20.7203 23.6797 19.8411ZM30.3365 20.2665C32.4638 20.2665 34.2791 19.1887 35.0449 17.5436C35.0449 18.6782 35.13 19.3305 35.2718 19.9545H38.7038C38.5053 18.9051 38.3634 17.26 38.3634 15.7283V10.9916C38.3634 7.58798 35.8958 5.26216 32.3787 5.26216C28.8616 5.26216 26.3089 7.47453 26.1387 10.6229L29.5423 10.708C29.6842 9.03453 30.762 8.09853 32.2653 8.09853C33.9103 8.09853 34.8747 9.17635 34.8747 10.9065V11.332L32.2369 11.6156C28.0107 12.0978 25.7133 13.6011 25.7133 16.2673C25.7133 18.7349 27.642 20.2665 30.3365 20.2665ZM29.2303 15.9553C29.2303 14.5654 30.4216 13.9982 32.4922 13.7429L34.9314 13.4593V14.1683C34.9314 16.324 33.3998 17.8273 31.4427 17.8273C30.1947 17.8273 29.2303 17.2033 29.2303 15.9553ZM48.1593 20.38C52.0168 20.38 55.0233 17.9123 55.1935 14.2818L51.7048 14.0265C51.5062 16.012 49.9462 17.26 48.1593 17.26C46.0604 17.26 44.2451 15.6149 44.2451 12.8069C44.2451 10.2258 45.8619 8.3538 48.1593 8.3538C50.0313 8.3538 51.5062 9.63016 51.7048 11.4171L55.1651 11.1334C54.9666 7.64471 51.96 5.26216 48.1593 5.26216C43.8764 5.26216 40.728 8.46725 40.728 12.8069C40.728 17.2033 43.848 20.38 48.1593 20.38ZM57.6079 19.9545H61.0683V15.5298L63.3658 13.3174L67.5069 19.9545H71.421L65.7483 11.02L71.3359 5.68762H67.1665L61.0683 11.6156V0.0999809H57.6079V19.9545ZM79.5215 19.7843L79.4932 16.8062C77.8197 17.26 76.8553 16.7211 76.8553 14.7923V0.0999809H73.3382V15.5014C73.3382 19.8694 76.4015 20.5785 79.5215 19.7843ZM80.5703 22.5923V25.5422C84.1725 26.4214 87.1507 24.8047 88.8809 20.4934L94.9507 5.68762H91.3769L87.5194 15.6716L83.3499 5.68762H79.6059L85.5907 19.6142L85.1652 20.6069C84.1158 22.8476 82.187 23.0178 80.5703 22.5923Z" fill="#060D00"/>
</svg>

<svg width="95" height="27" fill="none" xmlns="http://www.w3.org/2000/svg"><path d="M6.891 20.465c3.517 0 6.07-1.815 6.07-4.652 0-2.382-1.787-3.857-4.935-4.34l-2.213-.396c-1.05-.199-1.702-.71-1.702-1.56 0-1.163 1.078-1.872 2.411-1.872 1.645 0 2.837 1.078 2.922 2.61l3.177-.143c-.17-2.978-2.638-4.935-6.042-4.935S.736 6.992.736 9.885c0 2.156 1.39 3.773 4.34 4.227l2.24.397c1.475.255 2.213.737 2.213 1.673 0 1.163-1.191 1.815-2.638 1.815-1.758 0-3.063-1.02-3.205-2.609l-3.262.113c.227 3.035 2.78 4.964 6.467 4.964Zm16.789-.624-.029-2.95c-1.503.454-3.006.284-3.006-1.985V8.609h3.432V5.688h-3.432V2.085h-3.517v3.603h-2.581v2.921h2.58v6.58c0 4.652 3.433 5.531 6.553 4.652Zm6.657.425c2.127 0 3.942-1.077 4.708-2.722 0 1.134.085 1.787.227 2.41h3.432c-.199-1.049-.34-2.694-.34-4.226v-4.736c0-3.404-2.468-5.73-5.985-5.73-3.517 0-6.07 2.213-6.24 5.36l3.403.086c.142-1.673 1.22-2.61 2.723-2.61 1.645 0 2.61 1.078 2.61 2.808v.426l-2.638.284c-4.226.482-6.524 1.985-6.524 4.651 0 2.468 1.929 4 4.623 4Zm-1.107-4.31c0-1.39 1.192-1.958 3.262-2.213l2.44-.284v.71c0 2.155-1.532 3.658-3.49 3.658-1.247 0-2.212-.624-2.212-1.872Zm18.93 4.424c3.857 0 6.863-2.468 7.034-6.098l-3.49-.255c-.198 1.985-1.758 3.233-3.545 3.233-2.099 0-3.914-1.645-3.914-4.453 0-2.581 1.617-4.453 3.914-4.453 1.872 0 3.347 1.276 3.546 3.063l3.46-.284c-.198-3.488-3.205-5.87-7.006-5.87-4.283 0-7.431 3.204-7.431 7.544 0 4.396 3.12 7.573 7.431 7.573Zm9.448-.425h3.46V15.53l2.298-2.213 4.14 6.637h3.915l-5.673-8.934 5.588-5.332h-4.17l-6.098 5.928V.1h-3.46v19.854Zm21.914-.17-.029-2.979c-1.673.454-2.638-.085-2.638-2.014V.1h-3.517v15.401c0 4.368 3.064 5.077 6.184 4.283Zm1.048 2.807v2.95c3.603.88 6.58-.737 8.31-5.049l6.07-14.805h-3.573l-3.858 9.984-4.17-9.984h-3.743l5.985 13.926-.426.993c-1.05 2.24-2.978 2.41-4.595 1.985Z" fill="#060D00"/></svg>
